src/assets/mobile.svg

<!DOCTYPE svg PUBLIC "-//W3C//DTD SVG 1.1//EN" "http://www.w3.org/Graphics/SVG/1.1/DTD/svg11.dtd">

<!-- Uploaded to: SVG Repo, www.svgrepo.com, Transformed by: SVG Repo Mixer Tools -->
<svg fill="#eeff00" height="800px" width="800px" version="1.1" id="Capa_1" xmlns="http://www.w3.org/2000/svg" xmlns:xlink="http://www.w3.org/1999/xlink" viewBox="0 0 437.59 437.59" xml:space="preserve" stroke="#eeff00">

<g id="SVGRepo_bgCarrier" stroke-width="0"/>

<g id="SVGRepo_tracerCarrier" stroke-linecap="round" stroke-linejoin="round"/>

<g id="SVGRepo_iconCarrier"> <g> <path d="M109.025,34.262h39.542c3.038,0,5.5-2.462,5.5-5.5s-2.462-5.5-5.5-5.5h-39.542c-3.038,0-5.5,2.462-5.5,5.5 S105.987,34.262,109.025,34.262z"/> <path d="M128.796,383.771c-9.885,0-17.927,8.042-17.927,17.928s8.042,17.927,17.927,17.927s17.927-8.042,17.927-17.927 S138.681,383.771,128.796,383.771z M128.796,408.626c-3.82,0-6.927-3.107-6.927-6.927s3.107-6.928,6.927-6.928 s6.927,3.108,6.927,6.928S132.615,408.626,128.796,408.626z"/> <path d="M59.88,129.163h69.481c3.038,0,5.5-2.462,5.5-5.5s-2.462-5.5-5.5-5.5H59.88c-3.038,0-5.5,2.462-5.5,5.5 S56.842,129.163,59.88,129.163z"/> <path d="M59.88,228.583h69.481c3.038,0,5.5-2.462,5.5-5.5s-2.462-5.5-5.5-5.5H59.88c-3.038,0-5.5,2.462-5.5,5.5 S56.842,228.583,59.88,228.583z"/> <path d="M158.735,237.918H59.88c-3.038,0-5.5,2.462-5.5,5.5s2.462,5.5,5.5,5.5h98.855c3.038,0,5.5-2.462,5.5-5.5 S161.772,237.918,158.735,237.918z"/> <path d="M425.405,218.522c3.038,0,5.5-2.462,5.5-5.5V72.09c0-3.038-2.462-5.5-5.5-5.5h-174.5V22.91 c0-12.633-10.277-22.91-22.91-22.91h-198.4C16.962,0,6.685,10.277,6.685,22.91v391.77c0,12.632,10.277,22.91,22.91,22.91h198.4 c12.633,0,22.91-10.277,22.91-22.91v-81.829h174.5c3.038,0,5.5-2.462,5.5-5.5v-83.051c0-3.038-2.462-5.5-5.5-5.5h-174.5v-20.278 H425.405z M419.905,207.522H179.349V77.59h240.556V207.522z M173.849,238.801c-3.038,0-5.5,2.462-5.5,5.5v29.909H43.345V183.3 h125.004v13.947H59.88c-3.038,0-5.5,2.462-5.5,5.5s2.462,5.5,5.5,5.5h108.469v4.776c0,3.038,2.462,5.5,5.5,5.5h40.396v20.278 H173.849z M173.849,332.852h40.396v9.269h-170.9v-37.17h125.004v22.401C168.349,330.389,170.811,332.852,173.849,332.852z M168.349,97.827H59.88c-3.038,0-5.5,2.462-5.5,5.5s2.462,5.5,5.5,5.5h108.469V153.1H43.345V84.88h125.004V97.827z M29.595,11 h198.4c6.567,0,11.91,5.343,11.91,11.91v29.062H17.685V22.91C17.685,16.343,23.028,11,29.595,11z M227.995,426.59h-198.4 c-6.567,0-11.91-5.343-11.91-11.91v-38.098h222.22v38.098C239.905,421.247,234.562,426.59,227.995,426.59z M239.905,365.583H17.685 V62.972h222.22v3.618h-66.056c-3.038,0-5.5,2.462-5.5,5.5v1.79H37.845c-3.038,0-5.5,2.462-5.5,5.5v79.22c0,3.038,2.462,5.5,5.5,5.5 h130.504v8.2H37.845c-3.038,0-5.5,2.462-5.5,5.5v101.91c0,3.038,2.462,5.5,5.5,5.5h130.504v8.74H37.845c-3.038,0-5.5,2.462-5.5,5.5 v48.17c0,3.038,2.462,5.5,5.5,5.5h181.9c3.038,0,5.5-2.462,5.5-5.5v-14.769h14.66V365.583z M419.905,321.852H179.349v-72.051 h240.556V321.852z M239.905,238.801h-14.66v-20.278h14.66V238.801z"/> <path d="M204.317,112.086h190.62c3.038,0,5.5-2.462,5.5-5.5s-2.462-5.5-5.5-5.5h-190.62c-3.038,0-5.5,2.462-5.5,5.5 S201.28,112.086,204.317,112.086z"/> <path d="M204.317,140.21h96.091c3.038,0,5.5-2.462,5.5-5.5s-2.462-5.5-5.5-5.5h-96.091c-3.038,0-5.5,2.462-5.5,5.5 S201.28,140.21,204.317,140.21z"/> <path d="M204.317,275.466h190.62c3.038,0,5.5-2.462,5.5-5.5s-2.462-5.5-5.5-5.5h-190.62c-3.038,0-5.5,2.462-5.5,5.5 S201.28,275.466,204.317,275.466z"/> <path d="M204.317,303.59h96.091c3.038,0,5.5-2.462,5.5-5.5s-2.462-5.5-5.5-5.5h-96.091c-3.038,0-5.5,2.462-5.5,5.5 S201.28,303.59,204.317,303.59z"/> <path d="M204.317,168.334h136.715c3.038,0,5.5-2.462,5.5-5.5s-2.462-5.5-5.5-5.5H204.317c-3.038,0-5.5,2.462-5.5,5.5 S201.28,168.334,204.317,168.334z"/> <path d="M116.933,318.132H59.88c-3.038,0-5.5,2.462-5.5,5.5s2.462,5.5,5.5,5.5h57.053c3.038,0,5.5-2.462,5.5-5.5 S119.97,318.132,116.933,318.132z"/> </g> </g>

</svg>

<svg xmlns="http://www.w3.org/2000/svg" width="425.22" height="438.59" viewBox="0 0 425.22 438.59">
  <g id="SVGRepo_iconCarrier" transform="translate(-6.185 0.5)">
    <g id="Group_1" data-name="Group 1">
      <path id="Path_4" data-name="Path 4" d="M109.025,34.262h39.542a5.5,5.5,0,0,0,0-11H109.025a5.5,5.5,0,1,0,0,11Z" fill="#ef0" stroke="#ef0" stroke-width="1"/>
      <path id="Path_5" data-name="Path 5" d="M128.8,383.771A17.928,17.928,0,1,0,146.723,401.7,17.947,17.947,0,0,0,128.8,383.771Zm0,24.855a6.928,6.928,0,1,1,6.927-6.927A6.934,6.934,0,0,1,128.8,408.626Z" fill="#ef0" stroke="#ef0" stroke-width="1"/>
      <path id="Path_6" data-name="Path 6" d="M59.88,129.163h69.481a5.5,5.5,0,0,0,0-11H59.88a5.5,5.5,0,0,0,0,11Z" fill="#ef0" stroke="#ef0" stroke-width="1"/>
      <path id="Path_7" data-name="Path 7" d="M59.88,228.583h69.481a5.5,5.5,0,0,0,0-11H59.88a5.5,5.5,0,1,0,0,11Z" fill="#ef0" stroke="#ef0" stroke-width="1"/>
      <path id="Path_8" data-name="Path 8" d="M158.735,237.918H59.88a5.5,5.5,0,1,0,0,11h98.855a5.5,5.5,0,0,0,0-11Z" fill="#ef0" stroke="#ef0" stroke-width="1"/>
      <path id="Path_9" data-name="Path 9" d="M425.4,218.522a5.5,5.5,0,0,0,5.5-5.5V72.09a5.5,5.5,0,0,0-5.5-5.5H250.9V22.91A22.935,22.935,0,0,0,227.995,0H29.6A22.935,22.935,0,0,0,6.685,22.91V414.68a22.936,22.936,0,0,0,22.91,22.91h198.4a22.935,22.935,0,0,0,22.91-22.91V332.851H425.4a5.5,5.5,0,0,0,5.5-5.5V244.3a5.5,5.5,0,0,0-5.5-5.5H250.9V218.522H425.4Zm-5.5-11H179.349V77.59H419.9ZM173.849,238.8a5.5,5.5,0,0,0-5.5,5.5V274.21h-125V183.3h125v13.947H59.88a5.5,5.5,0,0,0,0,11H168.349v4.776a5.5,5.5,0,0,0,5.5,5.5h40.4V238.8h-40.4Zm0,94.051h40.4v9.269H43.345v-37.17h125v22.4A5.5,5.5,0,0,0,173.849,332.852Zm-5.5-235.025H59.88a5.5,5.5,0,0,0,0,11H168.349V153.1h-125V84.88h125ZM29.595,11h198.4A11.924,11.924,0,0,1,239.9,22.91V51.972H17.685V22.91A11.924,11.924,0,0,1,29.595,11Zm198.4,415.59H29.6a11.924,11.924,0,0,1-11.91-11.91v-38.1H239.9v38.1A11.924,11.924,0,0,1,227.995,426.59Zm11.91-61.007H17.685V62.972H239.9V66.59H173.849a5.5,5.5,0,0,0-5.5,5.5v1.79H37.845a5.5,5.5,0,0,0-5.5,5.5V158.6a5.5,5.5,0,0,0,5.5,5.5h130.5v8.2H37.845a5.5,5.5,0,0,0-5.5,5.5V279.71a5.5,5.5,0,0,0,5.5,5.5h130.5v8.74H37.845a5.5,5.5,0,0,0-5.5,5.5v48.17a5.5,5.5,0,0,0,5.5,5.5h181.9a5.5,5.5,0,0,0,5.5-5.5V332.851H239.9Zm180-43.731H179.349V249.8H419.9ZM239.9,238.8h-14.66V218.523H239.9Z" fill="#ef0" stroke="#ef0" stroke-width="1"/>
      <path id="Path_10" data-name="Path 10" d="M204.317,112.086h190.62a5.5,5.5,0,0,0,0-11H204.317a5.5,5.5,0,0,0,0,11Z" fill="#ef0" stroke="#ef0" stroke-width="1"/>
      <path id="Path_11" data-name="Path 11" d="M204.317,140.21h96.091a5.5,5.5,0,0,0,0-11H204.317a5.5,5.5,0,0,0,0,11Z" fill="#ef0" stroke="#ef0" stroke-width="1"/>
      <path id="Path_12" data-name="Path 12" d="M204.317,275.466h190.62a5.5,5.5,0,0,0,0-11H204.317a5.5,5.5,0,0,0,0,11Z" fill="#ef0" stroke="#ef0" stroke-width="1"/>
      <path id="Path_13" data-name="Path 13" d="M204.317,303.59h96.091a5.5,5.5,0,1,0,0-11H204.317a5.5,5.5,0,0,0,0,11Z" fill="#ef0" stroke="#ef0" stroke-width="1"/>
      <path id="Path_14" data-name="Path 14" d="M204.317,168.334H341.032a5.5,5.5,0,0,0,0-11H204.317a5.5,5.5,0,0,0,0,11Z" fill="#ef0" stroke="#ef0" stroke-width="1"/>
      <path id="Path_15" data-name="Path 15" d="M116.933,318.132H59.88a5.5,5.5,0,0,0,0,11h57.053a5.5,5.5,0,1,0,0-11Z" fill="#ef0" stroke="#ef0" stroke-width="1"/>
    </g>
  </g>
</svg>
